!!!COM: Music21
!!!OTL: march_March-Of-The-Levellers
!!!OMV: march_March-Of-The-Levellers
**kern
*clefG2
*k[f#]
*e:
*M4/4
=1
4e
8eL
8f#J
4g
8f#L
8eJ
=
4f#
8f#L
8gJ
2f#
=
4e
8eL
8f#J
4g
4e
=
8gL
8eJ
8f#L
8dJ
2e
=||
*M4/4
4e
8eL
8f#J
4g
8f#L
8eJ
=
4f#
8f#L
8gJ
2f#
!!linebreak:original
=
4e
8eL
8f#J
4g
4e
=
8gL
8eJ
8f#L
8dJ
2e
=||
4b
8bL
8ccJ
4b
8aL
8gJ
=
4a
8aL
8bJ
2a
=
4e
8eL
8f#J
4g
4e
=
8gL
8eJ
8f#L
8dJ
2e
!!linebreak:original
=||
4b
8bL
8ccJ
4b
8aL
8gJ
=
4a
8aL
8bJ
2a
=
4e
8eL
8f#J
4g
4e
=
8gL
8eJ
8f#L
8dJ
2e
=||
*-
